X: 20549
T: John Moore's
R: hornpipe
M: 4/4
K: Gmajor
d2|^cded g2 dB|dcAF G2FG|Aced cBAG|B2 A2 A2 Bc|
^cded g2 dB|dcAF G2 FG|AedB cDEF|A2 G2 G2:|
G2|FDFA dcAF|GBdB g2gf|efgf abc'b|agfe dcBc|
^cded g2dB|dcAF G2FG|AedB cDEF|A2 G2 G2:|

